X: 161
T: Aşağıdan Gelen de Hanım Oynasın
C: Rıdvan Çor
O: Turkey
F: http://compmusic.upf.edu/node/140
N: gerdaniye--turku--aksak--asagidan_gelen--bilecik
N: makam= gerdaniye
N: form= turku
N: usul= aksak = 9/8
M: 9/8
L: 1/16
K: C _2/4B ^3/4f  
Q: 1/4=234
%%MIDI tuningsystem comma53
e4 e4 d_ec2 d6 | B2 c2d2 _edc2 B2cd B2BA  | \
w:  ARANAĞME  |   | 
{c}B2A4A2 A8 z2 | 
w:   | 
z4f2 g2g2 f2g4e2  | e2e4e2 e=fd2 e4 z2 | \
w:  A şa ğı *  dan   |  ge len  de  ha *  *  nım   | 
g2 a4 a2ga f2e4g2  | 
w:  oy *  na sın    | 
g4 g4 d_ec2 d4 z2 | B2 c2d2 _edc2 B2cd B2BA  | \
w:  Kek lik  ke *  *  ba  |  bı *  nı  da  *  yi *  yen   | 
{c}B2A4A2 A8 z2 | 
w:  *  doy *  ma sın    | 
{d}e4e4d_e c2d6  | B2c2 d2_ed c2B2 cdB2 BA | \
w:  *  Kek lik  ke *  *  ba  |  bı *  nı  da  *  yi *  yen   | 
{c}B2 A4 A2A8z2  | 
w:  *  doy *  ma sın    | 
z4 f2g2 g2f2 g4 e2 | e2 e6e=f d2e4z2  | \
w:  Be ni  yâr *  dan_  |  a yı ran *  *  lar   | 
g2a4a2 gaf2 e4 g2 | 
w:  on *  ma sın    | 
g2 g2g4d_e c2d4z2  | B2c2 d2_ed c2B2 cdB2 BA | \
w:  Be ri  gel  a  *  yâ rim   |  be ri  gel  *  *  ben_ *  a  | 
{c}B2 A4 A2A8z2  | 
w:  *  dam  *  ye mem    | 
{d}e4 e4 d_ec2 d6 | B2 c2d2 _edc2 B2cd B2BA  | \
w:  *  El le rin  *  *  yâ  |  ri *  ne  de  *  yâ *  rim_  | 
{c}B2A4A2 A8 z2 | 
w:  *  ol  *  de mem    | 
e4e4d_e c2d6  | B2c2 d2_ed c2B2 cdB2 BA | \
w:  ARANAĞME  |   | 
{c}B2 A4 A2A8z2  | 
w:   | 
z4 f2g2 g2f2 g4 e2 | e2 e4 e2e=f d2e4z2  | \
w:  A şa ğı *  dan   |  ge len  de  ha *  *  nım   | 
g2a4a2 gaf2 e4 g2 | 
w:  oy *  na sın    | 
g4g4d_e c2d4z2  | B2c2 d2_ed c2B2 cdB2 BA | \
w:  Kek lik  ke *  *  ba  |  bı *  nı  da  *  yi *  yen   | 
{c}B2 A4 A2A8z2  | 
w:  *  doy *  ma sın    | 
{d}e4 e4 d_ec2 d6 | B2 c2d2 _edc2 B2cd B2BA  | \
w:  *  Kek lik  ke *  *  ba  |  bı *  nı  da  *  yi *  yen   | 
{c}B2A4A2 A8 z2 | 
w:  *  doy *  ma sın    | 
z4f2 g2g2 f2g4e2  | e2e6 e=fd2 e4 z2 | \
w:  Be ni  yâr *  dan_  |  a yı ran *  *  lar   | 
g2 a4 a2ga f2e4g2  | 
w:  on *  ma sın    | 
g2g2 g4 d_ec2 d4 z2 | B2 c2d2 _edc2 B2cd B2BA  | \
w:  Be ri  gel  a  *  yâ rim   |  be ri  gel  *  *  ben_ *  a  | 
{c}B2A4A2 A8 z2 | 
w:  *  dam  *  ye mem    | 
{d}e4e4d_e c2d6  | B2c2 d2_ed c2B2 cdB2 BA | \
w:  *  El le rin  *  *  yâ  |  ri *  ne  de  *  yâ *  rim_  | 
{c}B2 A4 A2A8z2  | 
w:  *  ol  *  de mem    | 
|


